X: 4
T: La Bastringue des m\'en\'etriers
R: reel
Z: 2008 John Chambers <jc:trillian.mit.edu>
S: printed copy from Debby Knight
M: C|
L: 1/8
K: D
A \
| d2D2 DFAd | c2B2 Bdef | g3A Acea | f2d2 dABc | d2D2 DFAd |
| c2B2 Bdef | ggfg bgec | d2f2 d3 :: A | d2dc defg | a4- a3f |
| gbge fbfd | Bgec (3BcB (3ABc | d2dc defg | a4- a3f | gbge fbfd | Bgec d3 :|
%%sep 1 1 500
